Gruvbox-Material-Icons/actions/16/path-mode-spiro.svg

<svg xmlns="http://www.w3.org/2000/svg" width="16" height="16" version="1.1">
 <defs>
  <style id="current-color-scheme" type="text/css">
   .ColorScheme-Text { color:#ebdbb2; } .ColorScheme-Highlight { color:#458588; }
  </style>
 </defs>
 <path style="fill:currentColor" class="ColorScheme-Text" d="M 12,5 C 12,5 11,5 11,6 11,7 12,7 12,7 13.105,7 14,7.8954 14,9 14,10.105 13.105,11 12,11 10.895,11 10,10.105 10,9 H 8 C 8,11.209 9.7909,13 12,13 14.209,13 16,11.209 16,9 16,6.7909 14.209,5 12,5 Z M 5,3 C 2.2386,3 0,5.2386 0,8 0,10.761 2.2386,13 5,13 5,13 6,13 6,12 6,11 5,11 5,11 3.3431,11 2,9.6569 2,8 2,6.3431 3.3431,5 5,5 6.6569,5 8,6.3431 8,8 V 9 H 10 V 8 C 10,5.2386 7.7614,3 5,3 Z"/>
</svg>

<svg width="16" height="16" version="1.1" xmlns="http://www.w3.org/2000/svg">
  <defs>
    <style id="current-color-scheme" type="text/css">.ColorScheme-Text { color:#ebdbb2; } .ColorScheme-Highlight { color:#458588; }</style>
  </defs>
  <path class="ColorScheme-Text" d="m12 5s-1 0-1 1 1 1 1 1c1.105 0 2 0.8954 2 2 0 1.105-0.895 2-2 2s-2-0.895-2-2h-2c0 2.209 1.791 4 4 4 2.209 0 4-1.791 4-4 0-2.209-1.791-4-4-4zm-7-2c-2.761 0-5 2.239-5 5 0 2.761 2.239 5 5 5 0 0 1 0 1-1s-1-1-1-1c-1.657 0-3-1.343-3-3s1.343-3 3-3 3 1.343 3 3v1h2v-1c0-2.761-2.239-5-5-5z" fill="currentColor"/>
</svg>
